X:1
T:Waltz Harry Lane
C:Andy Cutting
S:Niall Keegan: Don't Touch the Elk, Track 08
Z:MTGuru for Chiff & Fipple
M:3/4
K:Am
^d2|ec Ae Bc|d2 (3ddd ed|(3ccc Bc Ac|^GA BE (3Bcd|
ec Ae Bc|d2 ~d2 ed|cB Ac Bc|A^G Az (3Bcd||
ec Ae Bc|d2 (3ddd ed|(3ccc Bc Ac|^GA BF- F=G|
ec Ae Bc|d2 ~d2 ed|cB Ac Bc|A^G Az|]
cB|A2 (3Bcd (3efg|a6|~g2 ga gf|e2 (3eee (3eee|
eg ^fg ec|B2 B2 B2|B2 AB cd|BG c3B||
A2 (3Bcd (3efg|a4- a^f|gd ba gf|e2 e^d ef|
eg ^fg ec|B2 BA (3Bcd|edc BcB|A^G A2 z2|]
